z_dist/img/icons/social/inst.svg

<svg width="19" height="19" viewBox="0 0 19 19" fill="none" xmlns="http://www.w3.org/2000/svg">
<path d="M9.50016 7.12504C8.87027 7.12504 8.26618 7.37526 7.82078 7.82066C7.37539 8.26606 7.12516 8.87015 7.12516 9.50004C7.12516 10.1299 7.37539 10.734 7.82078 11.1794C8.26618 11.6248 8.87027 11.875 9.50016 11.875C10.1301 11.875 10.7341 11.6248 11.1795 11.1794C11.6249 10.734 11.8752 10.1299 11.8752 9.50004C11.8752 8.87015 11.6249 8.26606 11.1795 7.82066C10.7341 7.37526 10.1301 7.12504 9.50016 7.12504ZM9.50016 5.54171C10.55 5.54171 11.5568 5.95875 12.2991 6.70108C13.0415 7.44341 13.4585 8.45023 13.4585 9.50004C13.4585 10.5499 13.0415 11.5567 12.2991 12.299C11.5568 13.0413 10.55 13.4584 9.50016 13.4584C8.45035 13.4584 7.44353 13.0413 6.7012 12.299C5.95887 11.5567 5.54183 10.5499 5.54183 9.50004C5.54183 8.45023 5.95887 7.44341 6.7012 6.70108C7.44353 5.95875 8.45035 5.54171 9.50016 5.54171ZM14.646 5.34379C14.646 5.60625 14.5417 5.85795 14.3562 6.04353C14.1706 6.22912 13.9189 6.33337 13.6564 6.33337C13.394 6.33337 13.1423 6.22912 12.9567 6.04353C12.7711 5.85795 12.6668 5.60625 12.6668 5.34379C12.6668 5.08134 12.7711 4.82963 12.9567 4.64405C13.1423 4.45847 13.394 4.35421 13.6564 4.35421C13.9189 4.35421 14.1706 4.45847 14.3562 4.64405C14.5417 4.82963 14.646 5.08134 14.646 5.34379ZM9.50016 3.16671C7.54158 3.16671 7.22175 3.17225 6.31054 3.21262C5.68987 3.24192 5.27345 3.32504 4.88712 3.47546C4.54354 3.60846 4.29575 3.76758 4.03212 4.032C3.78434 4.2714 3.59382 4.56367 3.47479 4.887C3.32437 5.27492 3.24125 5.69054 3.21275 6.31042C3.17158 7.18442 3.16683 7.49 3.16683 9.50004C3.16683 11.4586 3.17237 11.7785 3.21275 12.6897C3.24204 13.3095 3.32516 13.7268 3.47479 14.1123C3.60937 14.4567 3.7677 14.7045 4.03054 14.9673C4.29733 15.2333 4.54512 15.3924 4.88554 15.5238C5.27662 15.675 5.69304 15.759 6.31054 15.7875C7.18454 15.8286 7.49012 15.8334 9.50016 15.8334C11.4587 15.8334 11.7786 15.8278 12.6898 15.7875C13.3089 15.7582 13.7261 15.675 14.1124 15.5254C14.4552 15.3916 14.7046 15.2325 14.9674 14.9697C15.2342 14.7029 15.3933 14.4551 15.5247 14.1147C15.6752 13.7244 15.7591 13.3072 15.7876 12.6897C15.8287 11.8157 15.8335 11.5101 15.8335 9.50004C15.8335 7.54146 15.828 7.22162 15.7876 6.31042C15.7583 5.69133 15.6752 5.27333 15.5247 4.887C15.4054 4.564 15.2153 4.27184 14.9682 4.032C14.7289 3.78409 14.4366 3.59355 14.1132 3.47467C13.7253 3.32425 13.3089 3.24112 12.6898 3.21262C11.8158 3.17146 11.5102 3.16671 9.50016 3.16671ZM9.50016 1.58337C11.6511 1.58337 11.9195 1.59129 12.7634 1.63087C13.6065 1.67046 14.1805 1.80267 14.6856 1.999C15.2081 2.20008 15.6482 2.47242 16.0884 2.91179C16.491 3.30754 16.8025 3.78626 17.0012 4.31462C17.1967 4.81892 17.3297 5.39367 17.3693 6.23679C17.4065 7.08071 17.4168 7.34908 17.4168 9.50004C17.4168 11.651 17.4089 11.9194 17.3693 12.7633C17.3297 13.6064 17.1967 14.1804 17.0012 14.6855C16.803 15.2141 16.4915 15.6929 16.0884 16.0883C15.6926 16.4907 15.2139 16.8022 14.6856 17.0011C14.1813 17.1966 13.6065 17.3296 12.7634 17.3692C11.9195 17.4064 11.6511 17.4167 9.50016 17.4167C7.34921 17.4167 7.08083 17.4088 6.23691 17.3692C5.39379 17.3296 4.81983 17.1966 4.31475 17.0011C3.78617 16.8028 3.30737 16.4912 2.91191 16.0883C2.50928 15.6926 2.19778 15.2139 1.99912 14.6855C1.80279 14.1812 1.67058 13.6064 1.631 12.7633C1.59379 11.9194 1.5835 11.651 1.5835 9.50004C1.5835 7.34908 1.59141 7.08071 1.631 6.23679C1.67058 5.39287 1.80279 4.81971 1.99912 4.31462C2.19722 3.78593 2.5088 3.30709 2.91191 2.91179C3.30749 2.50902 3.78625 2.19749 4.31475 1.999C4.81983 1.80267 5.393 1.67046 6.23691 1.63087C7.08083 1.59367 7.34921 1.58337 9.50016 1.58337Z" fill="#E0BEA2"/>
</svg>

<svg width="19" height="19" fill="none" xmlns="http://www.w3.org/2000/svg"><path d="M9.5 7.125a2.375 2.375 0 100 4.75 2.375 2.375 0 000-4.75zm0-1.583a3.958 3.958 0 110 7.916 3.958 3.958 0 010-7.916zm5.146-.198a.99.99 0 11-1.98 0 .99.99 0 011.98 0zM9.5 3.167c-1.958 0-2.278.005-3.19.046-.62.029-1.037.112-1.423.262a2.285 2.285 0 00-.855.557c-.248.24-.438.532-.557.855-.15.388-.234.804-.262 1.423-.041.874-.046 1.18-.046 3.19 0 1.959.005 2.278.046 3.19.029.62.112 1.037.262 1.422.134.345.293.592.556.855.266.266.514.425.855.557.39.151.807.235 1.425.264.874.04 1.18.045 3.19.045 1.958 0 2.278-.005 3.189-.046.619-.029 1.036-.112 1.422-.262.343-.133.593-.293.855-.555a2.3 2.3 0 00.558-.855c.15-.39.234-.808.263-1.425.04-.874.046-1.18.046-3.19 0-1.959-.006-2.278-.046-3.19-.03-.619-.113-1.037-.263-1.423a2.304 2.304 0 00-.557-.855 2.283 2.283 0 00-.855-.557c-.388-.15-.804-.234-1.423-.262-.874-.042-1.18-.046-3.19-.046zm0-1.584c2.151 0 2.42.008 3.263.048.844.04 1.418.172 1.923.368a3.86 3.86 0 011.402.913c.403.396.714.874.913 1.403.196.504.329 1.079.368 1.922.038.844.048 1.112.048 3.263s-.008 2.42-.048 3.263-.172 1.417-.368 1.922a3.866 3.866 0 01-.913 1.403 3.89 3.89 0 01-1.402.913c-.505.196-1.08.329-1.923.368-.844.037-1.112.048-3.263.048-2.15 0-2.42-.008-3.263-.048s-1.417-.172-1.922-.368a3.871 3.871 0 01-1.403-.913 3.883 3.883 0 01-.913-1.403c-.196-.504-.328-1.079-.368-1.922-.037-.844-.048-1.112-.048-3.263 0-2.15.008-2.42.048-3.263.04-.844.172-1.417.368-1.922.198-.53.51-1.008.913-1.403a3.877 3.877 0 011.403-.913c.505-.196 1.078-.329 1.922-.368.844-.037 1.112-.048 3.263-.048z" fill="#E0BEA2"/></svg>
